X: 097
T: Trip to New England
B: 204 Favourite Country Dances
N: Published by Straight & Skillern, London ca.1775
F: http://imslp.org/wiki/204_Favourite_Country_Dances_(Various) p.49 #97
Z: 2014 John Chambers <jc:trillian.mit.edu>
M: C|
L: 1/8
K: G
% - - - - - - - - - - - - - - - - - - - - - - - - -
|:\
GABc d2g2 | dBAG AFED | d2cB e2f2 | gdcB B2A2 |\
GABc d2g2 | fgab {g}f2ed | ged^c dgbg | fed^c d4 :|
|:\
A2Bc B2cd | c2B2 g2f2 | efga bgfe | ^d2cd B2ef |\
g2d2 edcB | ABcd {c}B2AG | cAGF e2dc | BAGF G4 :|
% - - - - - - - - - - - - - - - - - - - - - - - - -
%%begintext align
%% Cast off 2 Cu. lead up & cast off hands across at
%% bottom & back again lead up to the top & cast off
%% lead thro' the bottom & cast up Right & Left at top
%%endtext

%%sep 1 1 500
%%sep 1 1 500
